qtOgitor/res/icons/pmsolid.svg

<svg width="60" xmlns="http://www.w3.org/2000/svg" height="60" viewBox="0 0 48 48">
<path opacity=".46" fill="#1b3248" d="m22.05,2.64c1.11-.02 2.21-.03 3.31-.02 4.57,3.66 10.42,5.02 15.96,6.49 1.48,.42 3.2,.87 3.97,2.36 .57,2.81 .25,5.7 .25,8.55-.22,4.99 .46,10.14-1.19,14.97-5.98,3.03-10.83,7.83-16.79,10.91l.52-1.97c4.09-3.21 8.53-5.93 12.67-9.05 2.64-1.7 2.6-5.13 2.7-7.9 .02-4.76 .38-9.51 1.13-14.21-3.13-1.39-6.33-2.64-9.66-3.46-4.25-.99-7.93-3.39-11.83-5.22-2.72,2.61-5.91,5.12-9.92,4.78 2.66-2.53 6.46-3.4 8.88-6.23z"/>
<path fill="#3d73a5" d="m13.17,8.87c4.01,.34 7.2-2.17 9.92-4.78 3.9,1.83 7.58,4.23 11.83,5.22 3.33,.82 6.53,2.07 9.66,3.46-.75,4.7-1.11,9.45-1.13,14.21-.1,2.77-.06,6.2-2.7,7.9-4.14,3.12-8.58,5.84-12.67,9.05l-.65,.32c-1.45-7.35-.26-14.94-1.52-22.25-5.45-4.49-12.73-5.84-18.8-9.31-.59,.07-1.77,.22-2.36,.3l-.44-.17c1.54-1.11 3.52-1.24 5.31-1.69-.06-.34-.18-1.01-.24-1.35 1.15-.19 2.29-.41 3.43-.65l.36-.26z"/>
<path fill="#0e1a25" d="m4.31,12.82l.44,.17c.16,.18 .47,.53 .63,.71 5.43,3.27 11.76,4.61 17.27,7.74 2.18,.89 1.49,3.66 1.73,5.53-.18,5.98 .64,12.01-.45,17.94-3.15-1.29-6.23-2.72-9.44-3.85 0-.28-.01-.84-.01-1.12-1.99-.72-4.11-1.24-5.82-2.54-5.03-3.13-2.06-9.79-3.73-14.52-.21-.72-.63-2.15-.84-2.86-.14-2.3-1.96-5.62 .22-7.2z"/>
<path fill="#2a4e71" d="m4.75,12.99c.59-.08 1.77-.23 2.36-.3 6.07,3.47 13.35,4.82 18.8,9.31 1.26,7.31 .07,14.9 1.52,22.25-1.21,.54-2.43,1.04-3.65,1.55l.15-.89c1.09-5.93 .27-11.96 .45-17.94-.24-1.87 .45-4.64-1.73-5.53-5.51-3.13-11.84-4.47-17.27-7.74-.16-.18-.47-.53-.63-.71z"/>
<path opacity=".6" fill="#172a3d" d="m27.43,44.25l.65-.32-.52,1.97c-.19,.7-.39,1.4-.6,2.1h-3.6c.1-.55 .31-1.65 .42-2.2 1.22-.51 2.44-1.01 3.65-1.55z"/>
</svg>

<?xml version="1.0" encoding="UTF-8" standalone="no"?>
<!-- Created with Inkscape (http://www.inkscape.org/) -->
<svg
   xmlns:svg="http://www.w3.org/2000/svg"
   xmlns="http://www.w3.org/2000/svg"
   version="1.0"
   width="48pt"
   height="48pt"
   viewBox="0 0 48 48"
   id="svg2">
  <defs
     id="defs20" />
  <g
     id="#1b324875">
    <path
       d="M 22.05,2.64 C 23.16,2.62 24.26,2.61 25.36,2.62 C 29.93,6.28 35.78,7.64 41.32,9.11 C 42.8,9.53 44.52,9.98 45.29,11.47 C 45.86,14.28 45.54,17.17 45.54,20.02 C 45.32,25.01 46,30.16 44.35,34.99 C 38.37,38.02 33.52,42.82 27.56,45.9 L 28.08,43.93 C 32.17,40.72 36.61,38 40.75,34.88 C 43.39,33.18 43.35,29.75 43.45,26.98 C 43.47,22.22 43.83,17.47 44.58,12.77 C 41.45,11.38 38.25,10.13 34.92,9.31 C 30.67,8.32 26.99,5.92 23.09,4.09 C 20.37,6.7 17.18,9.21 13.17,8.87 C 15.83,6.34 19.63,5.47 22.05,2.64 z"
       id="path5"
       style="opacity:0.46000001;fill:#1b3248" />
  </g>
  <g
     id="#3d73a5ff">
    <path
       d="M 13.17,8.87 C 17.18,9.21 20.37,6.7 23.09,4.09 C 26.99,5.92 30.67,8.32 34.92,9.31 C 38.25,10.13 41.45,11.38 44.58,12.77 C 43.83,17.47 43.47,22.22 43.45,26.98 C 43.35,29.75 43.39,33.18 40.75,34.88 C 36.61,38 32.17,40.72 28.08,43.93 L 27.43,44.25 C 25.98,36.9 27.17,29.31 25.91,22 C 20.46,17.51 13.18,16.16 7.11,12.69 C 6.52,12.76 5.34,12.91 4.75,12.99 L 4.31,12.82 C 5.85,11.71 7.83,11.58 9.62,11.13 C 9.56,10.79 9.44,10.12 9.38,9.78 C 10.53,9.59 11.67,9.37 12.81,9.13 L 13.17,8.87 z"
       id="path8"
       style="opacity:1;fill:#3d73a5" />
  </g>
  <g
     id="#0e1a25ff">
    <path
       d="M 4.31,12.82 L 4.75,12.99 C 4.91,13.17 5.22,13.52 5.38,13.7 C 10.81,16.97 17.14,18.31 22.65,21.44 C 24.83,22.33 24.14,25.1 24.38,26.97 C 24.2,32.95 25.02,38.98 23.93,44.91 C 20.78,43.62 17.7,42.19 14.49,41.06 C 14.49,40.78 14.48,40.22 14.48,39.94 C 12.49,39.22 10.37,38.7 8.66,37.4 C 3.63,34.27 6.6,27.61 4.93,22.88 C 4.72,22.16 4.3,20.73 4.09,20.02 C 3.95,17.72 2.13,14.4 4.31,12.82 z"
       id="path11"
       style="opacity:1;fill:#0e1a25" />
  </g>
  <g
     id="#2a4e71ff">
    <path
       d="M 4.75,12.99 C 5.34,12.91 6.52,12.76 7.11,12.69 C 13.18,16.16 20.46,17.51 25.91,22 C 27.17,29.31 25.98,36.9 27.43,44.25 C 26.22,44.79 25,45.29 23.78,45.8 L 23.93,44.91 C 25.02,38.98 24.2,32.95 24.38,26.97 C 24.14,25.1 24.83,22.33 22.65,21.44 C 17.14,18.31 10.81,16.97 5.38,13.7 C 5.22,13.52 4.91,13.17 4.75,12.99 z"
       id="path14"
       style="opacity:1;fill:#2a4e71" />
  </g>
  <g
     id="#172a3d99">
    <path
       d="M 27.43,44.25 L 28.08,43.93 L 27.56,45.9 C 27.37,46.6 27.17,47.3 26.96,48 L 23.36,48 C 23.46,47.45 23.67,46.35 23.78,45.8 C 25,45.29 26.22,44.79 27.43,44.25 z"
       id="path17"
       style="opacity:0.6;fill:#172a3d" />
  </g>
</svg>
